images/insta-icon-dark.svg

<svg width="25" height="24" viewBox="0 0 25 24" fill="none" xmlns="http://www.w3.org/2000/svg">
<g clip-path="url(#clip0_5_1147)">
<mask id="mask0_5_1147" style="mask-type:luminance" maskUnits="userSpaceOnUse" x="0" y="0" width="25" height="24">
<path d="M24.58 0H0.580017V24H24.58V0Z" fill="white"/>
</mask>
<g mask="url(#mask0_5_1147)">
<path d="M12.58 24C19.2074 24 24.58 18.6274 24.58 12C24.58 5.37258 19.2074 0 12.58 0C5.9526 0 0.580017 5.37258 0.580017 12C0.580017 18.6274 5.9526 24 12.58 24Z" fill="#BA8D5B"/>
<path d="M15.1295 5.33203H10.0362C7.76421 5.33203 5.91888 7.17736 5.91888 9.44936V14.5427C5.91888 16.8147 7.76421 18.66 10.0362 18.66H15.1295C17.4015 18.66 19.2469 16.8147 19.2469 14.5427V9.44936C19.2469 7.17736 17.4015 5.33203 15.1295 5.33203ZM17.7589 14.548C17.7589 15.9987 16.5802 17.1827 15.1242 17.1827H10.0309C8.58021 17.1827 7.39621 16.004 7.39621 14.548V9.4547C7.39621 8.00403 8.57488 6.82003 10.0309 6.82003H15.1242C16.5749 6.82003 17.7589 7.9987 17.7589 9.4547V14.548Z" fill="#021923"/>
<path d="M12.5798 8.58984C10.7025 8.58984 9.17181 10.1205 9.17181 11.9978C9.17181 13.8752 10.7025 15.4058 12.5798 15.4058C14.4571 15.4058 15.9878 13.8752 15.9878 11.9978C15.9878 10.1205 14.4571 8.58984 12.5798 8.58984ZM12.5798 14.0672C11.4385 14.0672 10.5105 13.1392 10.5105 11.9978C10.5105 10.8565 11.4385 9.92851 12.5798 9.92851C13.7211 9.92851 14.6491 10.8565 14.6491 11.9978C14.6491 13.1392 13.7211 14.0672 12.5798 14.0672Z" fill="#021923"/>
<path d="M16.2474 8.96289C16.5614 8.91199 16.7746 8.6162 16.7237 8.30222C16.6728 7.98824 16.377 7.77497 16.0631 7.82587C15.7491 7.87677 15.5358 8.17256 15.5867 8.48654C15.6376 8.80052 15.9334 9.01379 16.2474 8.96289Z" fill="#021923"/>
</g>
</g>
<defs>
<clipPath id="clip0_5_1147">
<rect width="24" height="24" fill="white" transform="translate(0.580017)"/>
</clipPath>
</defs>
</svg>

<svg xmlns="http://www.w3.org/2000/svg" width="25" height="24" fill="none"><g clip-path="url(#a)"><mask id="b" width="25" height="24" x="0" y="0" maskUnits="userSpaceOnUse" style="mask-type:luminance"><path fill="#fff" d="M24.58 0h-24v24h24V0Z"/></mask><g mask="url(#b)"><path fill="#BA8D5B" d="M12.58 24c6.627 0 12-5.373 12-12s-5.373-12-12-12-12 5.373-12 12 5.373 12 12 12Z"/><path fill="#021923" d="M15.13 5.332h-5.094A4.12 4.12 0 0 0 5.92 9.449v5.094a4.12 4.12 0 0 0 4.117 4.117h5.094a4.12 4.12 0 0 0 4.117-4.117V9.449a4.12 4.12 0 0 0-4.117-4.117Zm2.629 9.216a2.637 2.637 0 0 1-2.635 2.635h-5.093a2.637 2.637 0 0 1-2.635-2.635V9.455a2.637 2.637 0 0 1 2.635-2.635h5.093a2.637 2.637 0 0 1 2.635 2.635v5.093Z"/><path fill="#021923" d="M12.58 8.59a3.414 3.414 0 0 0-3.408 3.408 3.414 3.414 0 0 0 3.408 3.408 3.414 3.414 0 0 0 3.408-3.408A3.414 3.414 0 0 0 12.58 8.59Zm0 5.477a2.071 2.071 0 0 1-2.07-2.07c0-1.14.928-2.068 2.07-2.068 1.141 0 2.07.928 2.07 2.069s-.929 2.07-2.07 2.07ZM16.247 8.963a.576.576 0 1 0-.184-1.137.576.576 0 0 0 .184 1.137Z"/></g></g><defs><clipPath id="a"><path fill="#fff" d="M.58 0h24v24h-24z"/></clipPath></defs></svg>
